X:8
T:No.52 Kitty O'Connor
C:march
M:4/4
L:1/8
K:G
G3GG2A2|B2G2G2FE|D3ED2C2|
B,2C2D2EF|G3GG2A2|B2G2G2D2|
E2A2A2B2|A2D2E2F2|G3GG2A2|
B2G2G2FE|D3ED2C2|B,2C2D2EF|
G3AG2E2|D2B,2G,2A,2|B,4A,4|G,8|
|:G,3G,G,2A,2|B,2C2D2C2|B,3CB,2A,2|B,2C2D2EF|
G3AG2E2|D2B,2G,2A,2|B,4A,4|[1A,8:|[2G,8||
